X:438
T:Lady Mary Ramsay
R:Strathspey
N:"Original key."
B:The Athole Collection
M:C
L:1/8
K:D
A,|D3B A<F F>B|A>FB>G A<FF<d|D3B A<F F>A|d>BA>F E/E/E E:|
g|f<d d>f e<c c>e|d<B d>B A<F F>e|f<d d>f e>dc>A|d>BA>F E/E/E Ee|
f>dd>f ecce|d<B d>B A<F F>A|d>fc>e B>dA>F|d>BA>F E/E/E E||
"last two bars at end of tune go:"
(3def (edc (3dcB (3AGF|(3GAB (3AGF F<E E>F||

